dist/img/icon-whatsapp.svg

<svg width="48" height="48" viewBox="0 0 48 48" fill="none" xmlns="http://www.w3.org/2000/svg">
<circle cx="24" cy="24" r="24" fill="#25D366"/>
<path fill-rule="evenodd" clip-rule="evenodd" d="M31.8028 15.5969C29.6541 13.4563 26.7965 12.2769 23.7523 12.2756C17.4792 12.2756 12.3739 17.3557 12.3713 23.5995C12.3705 25.5955 12.8945 27.5438 13.8905 29.2612L12.2759 35.1295L18.3091 33.5547C19.9715 34.4571 21.843 34.9326 23.7476 34.9331H23.7524C30.0247 34.9331 35.1306 29.8527 35.133 23.6086C35.1343 20.5825 33.9516 17.7373 31.8028 15.5969ZM23.7525 33.0206H23.7486C22.0513 33.0199 20.3866 32.566 18.9341 31.7086L18.5888 31.5045L15.0087 32.4391L15.9643 28.9656L15.7393 28.6095C14.7924 27.1109 14.2923 25.3787 14.2932 23.6002C14.2951 18.4105 18.5387 14.1883 23.7563 14.1883C26.2829 14.1891 28.658 15.1695 30.4438 16.9487C32.2297 18.7278 33.2127 21.0927 33.2118 23.6079C33.2096 28.798 28.9663 33.0206 23.7525 33.0206ZM28.9421 25.9713C28.6578 25.8295 27.2596 25.1452 26.9989 25.0506C26.7385 24.9562 26.5486 24.9092 26.3593 25.1924C26.1696 25.4755 25.6247 26.113 25.4587 26.3017C25.2928 26.4906 25.1271 26.5143 24.8427 26.3726C24.5582 26.231 23.642 25.9321 22.5558 24.9681C21.7105 24.2177 21.1398 23.2911 20.9738 23.008C20.8081 22.7245 20.9724 22.5861 21.0986 22.4305C21.4064 22.0501 21.7147 21.6513 21.8095 21.4626C21.9044 21.2737 21.8568 21.1084 21.7856 20.9668C21.7147 20.8252 21.146 19.4324 20.9091 18.8657C20.6781 18.3141 20.4438 18.3886 20.2692 18.38C20.1035 18.3718 19.9138 18.3701 19.7241 18.3701C19.5346 18.3701 19.2265 18.4408 18.9658 18.7242C18.7052 19.0075 17.9706 19.692 17.9706 21.0848C17.9706 22.4776 18.9896 23.8231 19.1317 24.012C19.2739 24.2009 21.137 27.059 23.9895 28.2846C24.668 28.5764 25.1976 28.7503 25.6107 28.8807C26.292 29.0961 26.9117 29.0657 27.4018 28.9929C27.9482 28.9116 29.0841 28.3083 29.3213 27.6474C29.5582 26.9863 29.5582 26.4199 29.487 26.3017C29.416 26.1837 29.2264 26.113 28.9421 25.9713Z" fill="white"/>
</svg>

<svg width="48" height="48" fill="none" xmlns="http://www.w3.org/2000/svg"><circle cx="24" cy="24" r="24" fill="#25D366"/><path fill-rule="evenodd" clip-rule="evenodd" d="M31.803 15.597a11.336 11.336 0 00-8.05-3.321c-6.274 0-11.38 5.08-11.382 11.323 0 1.997.524 3.945 1.52 5.662l-1.615 5.869 6.033-1.575a11.412 11.412 0 005.439 1.378h.004c6.273 0 11.379-5.08 11.381-11.324a11.227 11.227 0 00-3.33-8.012zm-8.05 17.424h-.004a9.483 9.483 0 01-4.815-1.312l-.345-.204-3.58.934.955-3.473-.225-.357a9.354 9.354 0 01-1.446-5.009c.002-5.19 4.246-9.412 9.463-9.412a9.42 9.42 0 016.688 2.76 9.333 9.333 0 012.768 6.66c-.002 5.19-4.246 9.413-9.46 9.413zm5.19-7.05c-.285-.142-1.683-.826-1.944-.92-.26-.095-.45-.142-.64.141-.19.284-.734.921-.9 1.11-.166.189-.332.212-.616.07-.285-.141-1.201-.44-2.287-1.404-.846-.75-1.416-1.677-1.582-1.96-.166-.284-.002-.422.125-.578.307-.38.616-.779.71-.967.095-.19.048-.355-.023-.496-.071-.142-.64-1.535-.877-2.101-.23-.552-.465-.477-.64-.486-.165-.008-.355-.01-.545-.01-.19 0-.497.07-.758.354-.26.284-.995.968-.995 2.36 0 1.394 1.019 2.74 1.16 2.928.143.189 2.006 3.047 4.858 4.273.679.291 1.209.465 1.622.596.681.215 1.3.185 1.79.112.547-.081 1.683-.685 1.92-1.346.237-.66.237-1.227.166-1.345-.071-.118-.26-.189-.545-.33z" fill="#fff"/></svg>
